azure-icons/iot-200-Machine-Learning-Studio-Web-Services.svg

<svg xmlns="http://www.w3.org/2000/svg" width="18" height="18"><defs><linearGradient id="a" x1="5.77" y1="7.11" x2="5.88" y2="17.6" gradientUnits="userSpaceOnUse"><stop offset="0" stop-color="#32d4f5"/><stop offset=".32" stop-color="#31d1f3"/><stop offset=".53" stop-color="#2ec9eb"/><stop offset=".7" stop-color="#29bade"/><stop offset=".86" stop-color="#22a5cb"/><stop offset="1" stop-color="#198ab3"/><stop offset="1" stop-color="#198ab3"/></linearGradient></defs><path d="M15.08 11.68a6.26 6.26 0 01-7.67-9.89l.07-.05a6.26 6.26 0 017.6 9.94" fill="#f2f2f2"/><path d="M16.24 3a6.26 6.26 0 00-8.76-1.26l-.07.05a6.26 6.26 0 007.67 9.89A6.29 6.29 0 0016.24 3zM5.81 6.33a5.45 5.45 0 01.61-2.12h1.51a10.74 10.74 0 00-.29 2.12zm3-2.12h2.08v2.12H8.45a9.24 9.24 0 01.32-2.12zm2.88 0h2.08a9.24 9.24 0 01.32 2.12h-2.4zm-.8 2.92v2.13H8.77a9.41 9.41 0 01-.32-2.13zm.8 0h2.4a9.41 9.41 0 01-.32 2.13h-2.12zm3.21 0h1.82a5.66 5.66 0 01-.6 2.13h-1.56a10.13 10.13 0 00.3-2.13zm0-.8a10 10 0 00-.3-2.12h1.52a5.36 5.36 0 01.6 2.12zm.71-2.93h-1.29a6.21 6.21 0 00-.88-1.66 5.5 5.5 0 012.13 1.66zm-2.12 0h-1.8v-2a3.27 3.27 0 011.76 2zm-2.6-2v2H9.05a3.27 3.27 0 011.8-2.04zM7.91 2.42a5.34 5.34 0 011.1-.64 6.06 6.06 0 00-.83 1.62H6.93a5.05 5.05 0 01.98-.98zm-2.1 4.71h1.83a10.84 10.84 0 00.29 2.13H6.42a5.26 5.26 0 01-.61-2.13zm1.13 3h1.24a6.12 6.12 0 00.88 1.67 5.44 5.44 0 01-2.12-1.72zm2.11 0h1.8v2a3.27 3.27 0 01-1.8-2.07zm2.6 2v-2h1.8a3.27 3.27 0 01-1.8 1.97zM14.59 11a5.08 5.08 0 01-1.16.69 5.74 5.74 0 00.89-1.67h1.25a5.68 5.68 0 01-.98.98z" fill="#0078d4"/><path d="M10.85 17.52H.89c-.31 0-.5-.51-.32-.77l3.43-5a.36.36 0 00.07-.22V8.22a.2.2 0 00-.2-.2h-.18a.38.38 0 01-.39-.39v-.18a.39.39 0 01.39-.39h4.37a.4.4 0 01.39.39v.18a.39.39 0 01-.39.37h-.19a.19.19 0 00-.19.2v3.32a.36.36 0 00.07.22l3.43 5c.18.26-.01.78-.33.78z" fill="url(#a)"/><path d="M2.24 16.2l2.47-3.6a.86.86 0 00.16-.51v-1.45a.29.29 0 01.29-.29h1.4a.29.29 0 01.29.29v1.55a.59.59 0 00.1.34l2.53 3.67a.22.22 0 01-.18.34H2.42a.21.21 0 01-.18-.34z" fill="#fff"/></svg>

<svg id="f9f075cf-e18d-4b2a-8c97-cb2e7fbd5331" xmlns="http://www.w3.org/2000/svg"  width="18" height="18" viewBox="0 0 18 18"><defs><linearGradient id="ab509d73-91bc-4196-8a16-7c73ea0f78d8" x1="5.77" y1="7.11" x2="5.88" y2="17.6" gradientUnits="userSpaceOnUse"><stop offset="0" stop-color="#32d4f5"/><stop offset="0.32" stop-color="#31d1f3"/><stop offset="0.53" stop-color="#2ec9eb"/><stop offset="0.7" stop-color="#29bade"/><stop offset="0.86" stop-color="#22a5cb"/><stop offset="1" stop-color="#198ab3"/><stop offset="1" stop-color="#198ab3"/></linearGradient></defs><title>Icon-iot-200</title><path id="a7c013d6-5689-4e8e-b37e-dee5ff9f4ca6" d="M15.08,11.68A6.26,6.26,0,0,1,7.41,1.79l.07-.05a6.26,6.26,0,0,1,7.6,9.94" fill="#f2f2f2"/><path d="M16.24,3A6.26,6.26,0,0,0,7.48,1.74l-.07.05a6.26,6.26,0,0,0,7.67,9.89h0A6.29,6.29,0,0,0,16.24,3ZM5.81,6.33a5.45,5.45,0,0,1,.61-2.12H7.93a10.74,10.74,0,0,0-.29,2.12Zm3-2.12h2.08V6.33H8.45A9.24,9.24,0,0,1,8.77,4.21Zm2.88,0h2.08a9.24,9.24,0,0,1,.32,2.12h-2.4Zm-.8,2.92V9.26H8.77a9.41,9.41,0,0,1-.32-2.13Zm.8,0h2.4a9.41,9.41,0,0,1-.32,2.13H11.65Zm3.21,0h1.82a5.66,5.66,0,0,1-.6,2.13H14.56A10.13,10.13,0,0,0,14.86,7.13Zm0-.8a10,10,0,0,0-.3-2.12h1.52a5.36,5.36,0,0,1,.6,2.12Zm.71-2.93H14.32a6.21,6.21,0,0,0-.88-1.66A5.5,5.5,0,0,1,15.57,3.4Zm-2.12,0h-1.8v-2A3.27,3.27,0,0,1,13.45,3.4Zm-2.6-2v2H9.05A3.27,3.27,0,0,1,10.85,1.36ZM7.91,2.42l0,0a5.34,5.34,0,0,1,1.1-.64A6.06,6.06,0,0,0,8.18,3.4H6.93A5.05,5.05,0,0,1,7.91,2.42ZM5.81,7.13H7.64a10.84,10.84,0,0,0,.29,2.13H6.42A5.26,5.26,0,0,1,5.81,7.13Zm1.13,3v0H8.18a6.12,6.12,0,0,0,.88,1.67A5.44,5.44,0,0,1,6.94,10.08Zm2.11,0h1.8v2A3.27,3.27,0,0,1,9.05,10.06Zm2.6,2v-2h1.8A3.27,3.27,0,0,1,11.65,12.1ZM14.59,11h0a5.08,5.08,0,0,1-1.16.69,5.74,5.74,0,0,0,.89-1.67h1.25A5.68,5.68,0,0,1,14.59,11Z" fill="#0078d4"/><path d="M10.85,17.52H.89c-.31,0-.5-.51-.32-.77l3.43-5a.36.36,0,0,0,.07-.22V8.22a.2.2,0,0,0-.2-.2H3.69a.38.38,0,0,1-.39-.39V7.45a.39.39,0,0,1,.39-.39H8.06a.4.4,0,0,1,.39.39v.18A.39.39,0,0,1,8.06,8H7.87a.19.19,0,0,0-.19.2v3.32a.36.36,0,0,0,.07.22l3.43,5C11.36,17,11.17,17.52,10.85,17.52Z" fill="url(#ab509d73-91bc-4196-8a16-7c73ea0f78d8)"/><path d="M2.24,16.2l2.47-3.6a.86.86,0,0,0,.16-.51V10.64a.29.29,0,0,1,.29-.29h1.4a.29.29,0,0,1,.29.29v1.55a.59.59,0,0,0,.1.34L9.48,16.2a.22.22,0,0,1-.18.34H2.42A.21.21,0,0,1,2.24,16.2Z" fill="#fff"/></svg>
